X:527
T:You Stole My Heart Away
M:6/8
L:1/8
B:O'Neill's 527
N:"Cheerfully" "collected by F. O'Neill"
Z:Transcribed by Dave Wooldridge
K:Gm
(B/2A/2) \
| G2 g gfe | (dcB AG^F) | G2 g (g/2a/2b).a | (g2 ^f g2) (B/2A/2) |
G2 g gfe |  (dcB AG^F) | G2 g (g/2a/2b).a | g3 g2 ||
A \
| B>cB (d<f)B | A>GA FGA | B>AB G2 d | gab d2 a |
bag fed | (cdB AG^F) | G2 g (g/2a/2b).a | g3 g2 ||


